ws2812b-native.cal
CAL    

DESCRIPTOR "Argyll Device Calibration Curves"
ORIGINATOR "Argyll dispcal"
CREATED "Thu Oct 22 22:59:06 2015"
DEVICE_CLASS "DISPLAY"
COLOR_REP "RGB"
VIDEO_LUT_CALIBRATION_POSSIBLE "YES"
TV_OUTPUT_ENCODING "NO"
DEVICE_TYPE "e"
NATIVE_TARGET_WHITE ""
TARGET_WHITE_XYZ "1914.998322 2025.965363 4915.837189"
TARGET_GAMMA "L_STAR"
DEGREE_OF_BLACK_OUTPUT_OFFSET "1.000000"
BLACK_POINT_CORRECTION "0.412668"
BLACK_NEUTRAL_BLEND_RATE "4.000000"
QUALITY "low"

NUMBER_OF_FIELDS 4
BEGIN_DATA_FORMAT
RGB_I RGB_R RGB_G RGB_B 
END_DATA_FORMAT

NUMBER_OF_SETS 256
BEGIN_DATA
0.00000 0.00321673 0.00320845 0.00342080 
0.00392157 0.00446248 0.00458931 0.00476183 
0.00784314 0.00570944 0.00596842 0.00610187 
0.0117647 0.00695761 0.00734578 0.00744093 
0.0156863 0.00820699 0.00872139 0.00877900 
0.0196078 0.00945760 0.0100952 0.0101161 
0.0235294 0.0107094 0.0114674 0.0114522 
0.0274510 0.0119625 0.0128377 0.0127873 
0.0313725 0.0132167 0.0142064 0.0141214 
0.0352941 0.0144722 0.0155733 0.0154546 
0.0392157 0.0157289 0.0169385 0.0167868 
0.0431373 0.0169869 0.0183019 0.0181180 
0.0470588 0.0182460 0.0196636 0.0194482 
0.0509804 0.0195065 0.0210236 0.0207774 
0.0549020 0.0207681 0.0223819 0.0221057 
0.0588235 0.0220310 0.0237385 0.0234330 
0.0627451 0.0232951 0.0250933 0.0247593 
0.0666667 0.0245604 0.0264465 0.0260846 
0.0705882 0.0258270 0.0277979 0.0274090 
0.0745098 0.0270948 0.0291477 0.0287324 
0.0784314 0.0283639 0.0304957 0.0300548 
0.0823529 0.0296342 0.0318421 0.0313763 
0.0862745 0.0309058 0.0331867 0.0326968 
0.0901961 0.0321786 0.0345297 0.0340163 
0.0941176 0.0334527 0.0358710 0.0353349 
0.0980392 0.0347280 0.0372107 0.0366525 
0.101961 0.0360046 0.0385496 0.0379695 
0.105882 0.0372826 0.0398882 0.0392866 
0.109804 0.0385631 0.0412270 0.0406046 
0.113725 0.0398471 0.0425663 0.0419241 
0.117647 0.0411355 0.0439064 0.0432460 
0.121569 0.0424291 0.0452475 0.0445707 
0.125490 0.0437283 0.0465897 0.0458985 
0.129412 0.0450332 0.0479332 0.0472298 
0.133333 0.0463437 0.0492781 0.0485646 
0.137255 0.0476596 0.0506244 0.0499028 
0.141176 0.0489804 0.0519723 0.0512443 
0.145098 0.0503057 0.0533219 0.0525889 
0.149020 0.0516351 0.0546737 0.0539366 
0.152941 0.0529683 0.0560278 0.0552870 
0.156863 0.0543049 0.0573844 0.0566402 
0.160784 0.0556447 0.0587436 0.0579958 
0.164706 0.0569874 0.0601056 0.0593539 
0.168627 0.0583332 0.0614706 0.0607142 
0.172549 0.0596822 0.0628387 0.0620767 
0.176471 0.0610349 0.0642103 0.0634414 
0.180392 0.0623912 0.0655854 0.0648083 
0.184314 0.0637518 0.0669647 0.0661775 
0.188235 0.0651167 0.0683482 0.0675491 
0.192157 0.0664864 0.0697361 0.0689234 
0.196078 0.0678617 0.0711282 0.0703002 
0.200000 0.0692426 0.0725242 0.0716797 
0.203922 0.0706292 0.0739236 0.0730617 
0.207843 0.0720215 0.0753263 0.0744457 
0.211765 0.0734191 0.0767324 0.0758317 
0.215686 0.0748214 0.0781419 0.0772202 
0.219608 0.0762272 0.0795544 0.0786107 
0.223529 0.0776358 0.0809705 0.0800028 
0.227451 0.0790468 0.0823907 0.0813969 
0.231373 0.0804599 0.0838150 0.0827937 
0.235294 0.0818752 0.0852432 0.0841929 
0.239216 0.0832928 0.0866755 0.0855941 
0.243137 0.0847124 0.0881128 0.0869974 
0.247059 0.0861341 0.0895552 0.0884038 
0.250980 0.0875586 0.0910028 0.0898136 
0.254902 0.0889870 0.0924554 0.0912266 
0.258824 0.0904194 0.0939132 0.0926430 
0.262745 0.0918562 0.0953773 0.0940627 
0.266667 0.0932975 0.0968480 0.0954875 
0.270588 0.0947436 0.0983254 0.0969183 
0.274510 0.0961954 0.0998093 0.0983550 
0.278431 0.0976530 0.101300 0.0997978 
0.282353 0.0991167 0.102797 0.101247 
0.286275 0.100587 0.104303 0.102703 
0.290196 0.102064 0.105818 0.104167 
0.294118 0.103549 0.107344 0.105642 
0.298039 0.105047 0.108880 0.107127 
0.301961 0.106557 0.110426 0.108623 
0.305882 0.108082 0.111983 0.110131 
0.309804 0.109620 0.113552 0.111652 
0.313725 0.111174 0.115136 0.113186 
0.317647 0.112745 0.116736 0.114736 
0.321569 0.114335 0.118353 0.116305 
0.325490 0.115947 0.119986 0.117894 
0.329412 0.117581 0.121637 0.119502 
0.333333 0.119239 0.123304 0.121131 
0.337255 0.120920 0.124989 0.122781 
0.341176 0.122626 0.126693 0.124453 
0.345098 0.124355 0.128418 0.126149 
0.349020 0.126110 0.130165 0.127872 
0.352941 0.127892 0.131935 0.129623 
0.356863 0.129702 0.133728 0.131403 
0.360784 0.131539 0.135544 0.133213 
0.364706 0.133403 0.137384 0.135054 
0.368627 0.135296 0.139246 0.136925 
0.372549 0.137216 0.141131 0.138827 
0.376471 0.139160 0.143040 0.140758 
0.380392 0.141128 0.144974 0.142720 
0.384314 0.143118 0.146935 0.144713 
0.388235 0.145133 0.148923 0.146742 
0.392157 0.147177 0.150939 0.148802 
0.396078 0.149249 0.152982 0.150894 
0.400000 0.151348 0.155054 0.153018 
0.403922 0.153474 0.157156 0.155172 
0.407843 0.155626 0.159285 0.157358 
0.411765 0.157803 0.161442 0.159572 
0.415686 0.160004 0.163626 0.161812 
0.419608 0.162228 0.165839 0.164078 
0.423529 0.164475 0.168083 0.166370 
0.427451 0.166745 0.170362 0.168689 
0.431373 0.169041 0.172674 0.171040 
0.435294 0.171366 0.175021 0.173419 
0.439216 0.173721 0.177404 0.175826 
0.443137 0.176106 0.179824 0.178262 
0.447059 0.178525 0.182284 0.180730 
0.450980 0.180981 0.184786 0.183230 
0.454902 0.183478 0.187329 0.185765 
0.458824 0.186021 0.189912 0.188331 
0.462745 0.188613 0.192538 0.190929 
0.466667 0.191256 0.195209 0.193561 
0.470588 0.193959 0.197927 0.196229 
0.474510 0.196725 0.200695 0.198936 
0.478431 0.199561 0.203516 0.201686 
0.482353 0.202469 0.206385 0.204482 
0.486275 0.205450 0.209297 0.207322 
0.490196 0.208501 0.212254 0.210206 
0.494118 0.211622 0.215253 0.213131 
0.498039 0.214812 0.218296 0.216101 
0.501961 0.218072 0.221383 0.219117 
0.505882 0.221396 0.224517 0.222183 
0.509804 0.224781 0.227694 0.225300 
0.513725 0.228219 0.230901 0.228464 
0.517647 0.231693 0.234136 0.231663 
0.521569 0.235201 0.237404 0.234900 
0.525490 0.238744 0.240709 0.238178 
0.529412 0.242324 0.244051 0.241503 
0.533333 0.245938 0.247432 0.244873 
0.537255 0.249590 0.250856 0.248290 
0.541176 0.253280 0.254323 0.251754 
0.545098 0.257013 0.257831 0.255266 
0.549020 0.260783 0.261375 0.258819 
0.552941 0.264591 0.264956 0.262410 
0.556863 0.268445 0.268576 0.266045 
0.560784 0.272340 0.272234 0.269723 
0.564706 0.276268 0.275927 0.273439 
0.568627 0.280236 0.279665 0.277197 
0.572549 0.284244 0.283447 0.281009 
0.576471 0.288295 0.287276 0.284873 
0.580392 0.292385 0.291149 0.288793 
0.584314 0.296491 0.295050 0.292756 
0.588235 0.300610 0.298976 0.296747 
0.592157 0.304750 0.302931 0.300766 
0.596078 0.308941 0.306930 0.304815 
0.600000 0.313180 0.310977 0.308913 
0.603922 0.317467 0.315066 0.313058 
0.607843 0.321815 0.319201 0.317238 
0.611765 0.326222 0.323384 0.321461 
0.615686 0.330698 0.327615 0.325727 
0.619608 0.335245 0.331897 0.330037 
0.623529 0.339870 0.336233 0.334394 
0.627451 0.344550 0.340625 0.338807 
0.631373 0.349282 0.345058 0.343261 
0.635294 0.354066 0.349532 0.347751 
0.639216 0.358897 0.354044 0.352273 
0.643137 0.363759 0.358597 0.356830 
0.647059 0.368642 0.363189 0.361420 
0.650980 0.373559 0.367821 0.366050 
0.654902 0.378512 0.372486 0.370717 
0.658824 0.383503 0.377189 0.375410 
0.662745 0.388542 0.381949 0.380134 
0.666667 0.393638 0.386774 0.384909 
0.670588 0.398801 0.391675 0.389750 
0.674510 0.404038 0.396662 0.394664 
0.678431 0.409294 0.401743 0.399658 
0.682353 0.414557 0.406892 0.404730 
0.686275 0.419829 0.412069 0.409833 
0.690196 0.425119 0.417281 0.414962 
0.694118 0.430443 0.422531 0.420119 
0.698039 0.435828 0.427830 0.425309 
0.701961 0.441297 0.433187 0.430546 
0.705882 0.446880 0.438621 0.435841 
0.709804 0.452546 0.444146 0.441196 
0.713725 0.458269 0.449764 0.446621 
0.717647 0.464058 0.455435 0.452103 
0.721569 0.469906 0.461178 0.457622 
0.725490 0.475819 0.467004 0.463207 
0.729412 0.481790 0.472895 0.468856 
0.733333 0.487820 0.478842 0.474560 
0.737255 0.493903 0.484842 0.480319 
0.741176 0.500039 0.490891 0.486134 
0.745098 0.506239 0.496986 0.492000 
0.749020 0.512504 0.503128 0.497915 
0.752941 0.518790 0.509327 0.503887 
0.756863 0.525087 0.515535 0.509936 
0.760784 0.531400 0.521741 0.516023 
0.764706 0.537729 0.527951 0.522145 
0.768627 0.544062 0.534168 0.528310 
0.772549 0.550400 0.540392 0.534519 
0.776471 0.556743 0.546627 0.540764 
0.780392 0.563104 0.552873 0.547054 
0.784314 0.569520 0.559123 0.553384 
0.788235 0.576005 0.565426 0.559729 
0.792157 0.582510 0.571805 0.566141 
0.796078 0.589043 0.578256 0.572634 
0.800000 0.595638 0.584744 0.579185 
0.803922 0.602265 0.591291 0.585753 
0.807843 0.608895 0.597913 0.592362 
0.811765 0.615538 0.604599 0.599026 
0.815686 0.622218 0.611315 0.605734 
0.819608 0.628896 0.618059 0.612484 
0.823529 0.635566 0.624808 0.619280 
0.827451 0.642267 0.631563 0.626071 
0.831373 0.649013 0.638355 0.632860 
0.835294 0.655780 0.645216 0.639700 
0.839216 0.662569 0.652161 0.646653 
0.843137 0.669395 0.659220 0.653733 
0.847059 0.676169 0.666427 0.660954 
0.850980 0.682856 0.673735 0.668349 
0.854902 0.689470 0.681005 0.675821 
0.858824 0.696018 0.688245 0.683273 
0.862745 0.702502 0.695476 0.690727 
0.866667 0.709008 0.702715 0.698183 
0.870588 0.715567 0.710012 0.705671 
0.874510 0.722196 0.717388 0.713277 
0.878431 0.728928 0.724875 0.721029 
0.882353 0.735803 0.732489 0.728919 
0.886275 0.742845 0.740216 0.736919 
0.890196 0.750036 0.748041 0.745031 
0.894118 0.757366 0.755951 0.753243 
0.898039 0.764821 0.763910 0.761505 
0.901961 0.772418 0.771906 0.769796 
0.905882 0.780174 0.779930 0.778099 
0.909804 0.788149 0.788049 0.786436 
0.913725 0.796346 0.796307 0.794894 
0.917647 0.804742 0.804719 0.803492 
0.921569 0.813207 0.813153 0.812112 
0.925490 0.821732 0.821615 0.820722 
0.929412 0.830356 0.830148 0.829380 
0.933333 0.839070 0.838752 0.838114 
0.937255 0.847918 0.847455 0.846932 
0.941176 0.856914 0.856289 0.855886 
0.945098 0.866015 0.865254 0.864963 
0.949020 0.875146 0.874288 0.874083 
0.952941 0.884322 0.883416 0.883290 
0.956863 0.893558 0.892693 0.892636 
0.960784 0.902756 0.902019 0.902037 
0.964706 0.912018 0.911425 0.911532 
0.968627 0.921400 0.920918 0.921100 
0.972549 0.930944 0.930510 0.930744 
0.976471 0.940591 0.940182 0.940453 
0.980392 0.950296 0.949935 0.950218 
0.984314 0.960066 0.959769 0.960039 
0.988235 0.969895 0.969685 0.969920 
0.992157 0.979820 0.979692 0.979871 
0.996078 0.989854 0.989797 0.989898 
1.000000 1.000000 1.000000 1.000000 
END_DATA
CAL    

DESCRIPTOR "Argyll Calibration options and model"
ORIGINATOR "Argyll dispcal"
CREATED "Thu Oct 22 22:59:06 201"

NUMBER_OF_FIELDS 3
BEGIN_DATA_FORMAT
R_P G_P B_P 
END_DATA_FORMAT

NUMBER_OF_SETS 32
BEGIN_DATA
-0.000719798 -0.000350363 -0.000378136 
1.000720 1.000350 1.000378 
-0.0326980 0.115241 0.113719 
0.170634 0.0982808 0.105594 
0.114210 0.104170 0.0993955 
0.0928596 0.0882845 0.0887234 
0.0786754 0.0820980 0.0804657 
0.0724767 0.0844542 0.0774762 
0.0722519 0.0811852 0.0736315 
0.0592657 0.0695976 0.0635564 
0.0517105 0.0624540 0.0561714 
0.0464692 0.0563983 0.0513562 
0.0417750 0.0486995 0.0453090 
0.0304319 0.0407733 0.0391284 
0.0280924 0.0348685 0.0334224 
0.0284967 0.0342246 0.0324624 
0.0255772 0.0308253 0.0303591 
0.0209002 0.0279276 0.0278827 
0.0156144 0.0231764 0.0228408 
0.0160763 0.0216186 0.0218059 
0.0151022 0.0200761 0.0203409 
0.0131716 0.0186122 0.0173565 
0.00888373 0.0175726 0.0150831 
0.0117193 0.0172294 0.0168811 
0.0118627 0.0160389 0.0157467 
0.0106364 0.0135891 0.0202740 
0.0100225 0.0132642 0.0147175 
0.00828534 0.0119066 0.0153391 
0.0110035 0.0115164 0.0170621 
0.00449404 0.0106612 0.0128689 
0.00840583 0.0144541 0.00808300 
0.00545605 0.0117396 0.0138819 
END_DATA
