ws2812b-6500.cal
CAL    

DESCRIPTOR "Argyll Device Calibration Curves"
ORIGINATOR "Argyll dispcal"
CREATED "Thu Oct 22 19:07:02 2015"
DEVICE_CLASS "DISPLAY"
COLOR_REP "RGB"
VIDEO_LUT_CALIBRATION_POSSIBLE "YES"
TV_OUTPUT_ENCODING "NO"
DEVICE_TYPE "e"
TARGET_WHITE_XYZ "1000.129066 1052.585669 1144.659099"
TARGET_GAMMA "L_STAR"
DEGREE_OF_BLACK_OUTPUT_OFFSET "1.000000"
BLACK_POINT_CORRECTION "0.470193"
BLACK_NEUTRAL_BLEND_RATE "4.000000"
QUALITY "low"

NUMBER_OF_FIELDS 4
BEGIN_DATA_FORMAT
RGB_I RGB_R RGB_G RGB_B 
END_DATA_FORMAT

NUMBER_OF_SETS 256
BEGIN_DATA
0.00000 0.00213420 0.00171432 0.000877046 
0.00392157 0.00333091 0.00259186 0.00134506 
0.00784314 0.00452435 0.00347210 0.00180706 
0.0117647 0.00571454 0.00435503 0.00226318 
0.0156863 0.00690148 0.00524067 0.00271352 
0.0196078 0.00808520 0.00612903 0.00315819 
0.0235294 0.00926570 0.00702013 0.00359731 
0.0274510 0.0104430 0.00791398 0.00403096 
0.0313725 0.0116171 0.00881059 0.00445925 
0.0352941 0.0127880 0.00970997 0.00488229 
0.0392157 0.0139558 0.0106121 0.00530016 
0.0431373 0.0151204 0.0115171 0.00571297 
0.0470588 0.0162819 0.0124249 0.00612080 
0.0509804 0.0174403 0.0133355 0.00652374 
0.0549020 0.0185955 0.0142489 0.00692188 
0.0588235 0.0197477 0.0151652 0.00731531 
0.0627451 0.0208967 0.0160844 0.00770411 
0.0666667 0.0220427 0.0170064 0.00808835 
0.0705882 0.0231856 0.0179314 0.00846813 
0.0745098 0.0243255 0.0188592 0.00884351 
0.0784314 0.0254624 0.0197900 0.00921462 
0.0823529 0.0265962 0.0207237 0.00958165 
0.0862745 0.0277270 0.0216603 0.00994501 
0.0901961 0.0288547 0.0225998 0.0103055 
0.0941176 0.0299797 0.0235415 0.0106646 
0.0980392 0.0311032 0.0244857 0.0110242 
0.101961 0.0322277 0.0254326 0.0113851 
0.105882 0.0333551 0.0263827 0.0117482 
0.109804 0.0344864 0.0273358 0.0121141 
0.113725 0.0356215 0.0282920 0.0124838 
0.117647 0.0367600 0.0292508 0.0128587 
0.121569 0.0379009 0.0302125 0.0132409 
0.125490 0.0390436 0.0311770 0.0136322 
0.129412 0.0401879 0.0321451 0.0140360 
0.133333 0.0413339 0.0331176 0.0144540 
0.137255 0.0424824 0.0340954 0.0148876 
0.141176 0.0436342 0.0350804 0.0153382 
0.145098 0.0447911 0.0360736 0.0158070 
0.149020 0.0459541 0.0370768 0.0162960 
0.152941 0.0471251 0.0380906 0.0168071 
0.156863 0.0483047 0.0391158 0.0173428 
0.160784 0.0494940 0.0401528 0.0179047 
0.164706 0.0506933 0.0412015 0.0184952 
0.168627 0.0519025 0.0422622 0.0191151 
0.172549 0.0531216 0.0433349 0.0197654 
0.176471 0.0543506 0.0444188 0.0204439 
0.180392 0.0555892 0.0455143 0.0211445 
0.184314 0.0568374 0.0466195 0.0218609 
0.188235 0.0580932 0.0477324 0.0225915 
0.192157 0.0593550 0.0488527 0.0233318 
0.196078 0.0606209 0.0499796 0.0240745 
0.200000 0.0618891 0.0511124 0.0248167 
0.203922 0.0631578 0.0522510 0.0255534 
0.207843 0.0644261 0.0533956 0.0262810 
0.211765 0.0656932 0.0545463 0.0269944 
0.215686 0.0669594 0.0557024 0.0276897 
0.219608 0.0682248 0.0568638 0.0283656 
0.223529 0.0694895 0.0580306 0.0290228 
0.227451 0.0707540 0.0592028 0.0296655 
0.231373 0.0720203 0.0603802 0.0302993 
0.235294 0.0732899 0.0615629 0.0309273 
0.239216 0.0745630 0.0627503 0.0315509 
0.243137 0.0758404 0.0639403 0.0321713 
0.247059 0.0771221 0.0651322 0.0327878 
0.250980 0.0784092 0.0663254 0.0334033 
0.254902 0.0797021 0.0675171 0.0340176 
0.258824 0.0810006 0.0687064 0.0346302 
0.262745 0.0823038 0.0698936 0.0352419 
0.266667 0.0836114 0.0710765 0.0358538 
0.270588 0.0849237 0.0722550 0.0364678 
0.274510 0.0862410 0.0734293 0.0370835 
0.278431 0.0875634 0.0745992 0.0377020 
0.282353 0.0888932 0.0757628 0.0383268 
0.286275 0.0902288 0.0769187 0.0389559 
0.290196 0.0915707 0.0780667 0.0395872 
0.294118 0.0929202 0.0792068 0.0402263 
0.298039 0.0942788 0.0803391 0.0408705 
0.301961 0.0956487 0.0814636 0.0415186 
0.305882 0.0970300 0.0825808 0.0421740 
0.309804 0.0984227 0.0836907 0.0428385 
0.313725 0.0998271 0.0847940 0.0435120 
0.317647 0.101243 0.0858930 0.0441931 
0.321569 0.102671 0.0869891 0.0448819 
0.325490 0.104110 0.0880823 0.0455863 
0.329412 0.105562 0.0891730 0.0463099 
0.333333 0.107028 0.0902616 0.0470551 
0.337255 0.108507 0.0913492 0.0478239 
0.341176 0.110000 0.0924381 0.0486166 
0.345098 0.111505 0.0935290 0.0494361 
0.349020 0.113023 0.0946230 0.0502848 
0.352941 0.114554 0.0957193 0.0511627 
0.356863 0.116098 0.0968181 0.0520719 
0.360784 0.117652 0.0979198 0.0530133 
0.364706 0.119218 0.0990299 0.0539746 
0.368627 0.120797 0.100150 0.0549539 
0.372549 0.122388 0.101280 0.0559450 
0.376471 0.123992 0.102420 0.0569422 
0.380392 0.125609 0.103571 0.0579457 
0.384314 0.127239 0.104734 0.0589480 
0.388235 0.128885 0.105910 0.0599536 
0.392157 0.130547 0.107101 0.0609587 
0.396078 0.132225 0.108308 0.0619610 
0.400000 0.133923 0.109530 0.0629600 
0.403922 0.135644 0.110769 0.0639494 
0.407843 0.137389 0.112026 0.0649249 
0.411765 0.139161 0.113302 0.0658944 
0.415686 0.140962 0.114596 0.0668642 
0.419608 0.142796 0.115911 0.0678395 
0.423529 0.144667 0.117249 0.0688079 
0.427451 0.146578 0.118611 0.0697740 
0.431373 0.148535 0.119996 0.0707463 
0.435294 0.150540 0.121406 0.0717121 
0.439216 0.152598 0.122842 0.0726662 
0.443137 0.154708 0.124303 0.0736122 
0.447059 0.156874 0.125787 0.0745468 
0.450980 0.159100 0.127293 0.0754620 
0.454902 0.161384 0.128821 0.0763576 
0.458824 0.163727 0.130371 0.0772255 
0.462745 0.166138 0.131939 0.0780659 
0.466667 0.168608 0.133526 0.0788763 
0.470588 0.171120 0.135131 0.0796516 
0.474510 0.173675 0.136748 0.0803928 
0.478431 0.176260 0.138374 0.0811025 
0.482353 0.178864 0.140004 0.0817825 
0.486275 0.181476 0.141637 0.0824350 
0.490196 0.184090 0.143272 0.0830672 
0.494118 0.186700 0.144908 0.0836875 
0.498039 0.189292 0.146549 0.0843010 
0.501961 0.191860 0.148193 0.0849080 
0.505882 0.194403 0.149841 0.0855093 
0.509804 0.196929 0.151493 0.0861091 
0.513725 0.199443 0.153150 0.0867091 
0.517647 0.201950 0.154814 0.0873125 
0.521569 0.204462 0.156486 0.0879187 
0.525490 0.206977 0.158169 0.0885272 
0.529412 0.209505 0.159863 0.0891384 
0.533333 0.212068 0.161566 0.0897602 
0.537255 0.214664 0.163284 0.0903943 
0.541176 0.217297 0.165022 0.0910443 
0.545098 0.219979 0.166780 0.0917174 
0.549020 0.222724 0.168562 0.0924147 
0.552941 0.225533 0.170368 0.0931375 
0.556863 0.228412 0.172201 0.0938875 
0.560784 0.231363 0.174067 0.0946611 
0.564706 0.234385 0.175966 0.0954534 
0.568627 0.237479 0.177899 0.0962617 
0.572549 0.240633 0.179871 0.0970942 
0.576471 0.243832 0.181889 0.0979601 
0.580392 0.247071 0.183956 0.0988622 
0.584314 0.250342 0.186069 0.0997822 
0.588235 0.253645 0.188224 0.100715 
0.592157 0.256976 0.190420 0.101666 
0.596078 0.260339 0.192663 0.102640 
0.600000 0.263741 0.194952 0.103631 
0.603922 0.267167 0.197275 0.104624 
0.607843 0.270630 0.199633 0.105617 
0.611765 0.274135 0.202026 0.106617 
0.615686 0.277689 0.204462 0.107624 
0.619608 0.281290 0.206940 0.108639 
0.623529 0.284934 0.209449 0.109672 
0.627451 0.288612 0.211989 0.110711 
0.631373 0.292325 0.214569 0.111761 
0.635294 0.296092 0.217200 0.112819 
0.639216 0.299900 0.219876 0.113871 
0.643137 0.303729 0.222585 0.114906 
0.647059 0.307587 0.225317 0.115927 
0.650980 0.311489 0.228065 0.116939 
0.654902 0.315443 0.230836 0.117952 
0.658824 0.319463 0.233624 0.118961 
0.662745 0.323554 0.236412 0.119962 
0.666667 0.327735 0.239191 0.120957 
0.670588 0.332022 0.241974 0.121945 
0.674510 0.336367 0.244763 0.122928 
0.678431 0.340755 0.247548 0.123925 
0.682353 0.345192 0.250333 0.124929 
0.686275 0.349684 0.253137 0.125938 
0.690196 0.354219 0.255968 0.126952 
0.694118 0.358804 0.258832 0.127969 
0.698039 0.363466 0.261718 0.128995 
0.701961 0.368214 0.264624 0.130034 
0.705882 0.372993 0.267548 0.131072 
0.709804 0.377834 0.270503 0.132108 
0.713725 0.382763 0.273489 0.133136 
0.717647 0.387774 0.276496 0.134156 
0.721569 0.392849 0.279526 0.135180 
0.725490 0.398008 0.282577 0.136219 
0.729412 0.403246 0.285652 0.137289 
0.733333 0.408550 0.288748 0.138387 
0.737255 0.413921 0.291876 0.139510 
0.741176 0.419305 0.295057 0.140665 
0.745098 0.424670 0.298291 0.141834 
0.749020 0.430022 0.301577 0.143031 
0.752941 0.435377 0.304917 0.144275 
0.756863 0.440723 0.308312 0.145547 
0.760784 0.446051 0.311776 0.146849 
0.764706 0.451384 0.315283 0.148183 
0.768627 0.456695 0.318823 0.149545 
0.772549 0.461992 0.322412 0.150940 
0.776471 0.467306 0.326027 0.152364 
0.780392 0.472643 0.329661 0.153821 
0.784314 0.477963 0.333319 0.155329 
0.788235 0.483269 0.337017 0.156863 
0.792157 0.488654 0.340769 0.158364 
0.796078 0.494152 0.344539 0.159798 
0.800000 0.499714 0.348315 0.161200 
0.803922 0.505278 0.352110 0.162606 
0.807843 0.510904 0.355931 0.164016 
0.811765 0.516607 0.359829 0.165398 
0.815686 0.522384 0.363821 0.166744 
0.819608 0.528250 0.367875 0.168076 
0.823529 0.534227 0.371964 0.169446 
0.827451 0.540283 0.376069 0.170869 
0.831373 0.546480 0.380218 0.172319 
0.835294 0.552820 0.384417 0.173768 
0.839216 0.559125 0.388651 0.175221 
0.843137 0.565383 0.392871 0.176687 
0.847059 0.571657 0.397077 0.178165 
0.850980 0.577924 0.401297 0.179675 
0.854902 0.584208 0.405508 0.181252 
0.858824 0.590532 0.409694 0.182877 
0.862745 0.596915 0.413826 0.184537 
0.866667 0.603438 0.417937 0.186203 
0.870588 0.610082 0.422059 0.187879 
0.874510 0.616682 0.426218 0.189555 
0.878431 0.623230 0.430397 0.191213 
0.882353 0.629838 0.434586 0.192865 
0.886275 0.636432 0.438798 0.194505 
0.890196 0.643034 0.443050 0.196177 
0.894118 0.649708 0.447402 0.197857 
0.898039 0.656458 0.451887 0.199531 
0.901961 0.663305 0.456465 0.201250 
0.905882 0.670119 0.461134 0.202971 
0.909804 0.676889 0.465860 0.204698 
0.913725 0.683638 0.470596 0.206469 
0.917647 0.690360 0.475355 0.208273 
0.921569 0.697097 0.480098 0.210094 
0.925490 0.703804 0.484843 0.211916 
0.929412 0.710545 0.489669 0.213717 
0.933333 0.717275 0.494514 0.215500 
0.937255 0.723961 0.499378 0.217259 
0.941176 0.730624 0.504257 0.218994 
0.945098 0.737233 0.509122 0.220710 
0.949020 0.743730 0.513947 0.222425 
0.952941 0.750140 0.518733 0.224176 
0.956863 0.756459 0.523494 0.225978 
0.960784 0.762715 0.528246 0.227806 
0.964706 0.768932 0.532998 0.229631 
0.968627 0.775117 0.537781 0.231434 
0.972549 0.781275 0.542600 0.233218 
0.976471 0.787412 0.547446 0.234962 
0.980392 0.793534 0.552317 0.236656 
0.984314 0.799627 0.557207 0.238326 
0.988235 0.805696 0.562109 0.239980 
0.992157 0.811743 0.567026 0.241618 
0.996078 0.817769 0.571957 0.243242 
1.000000 0.823774 0.576902 0.244850 
END_DATA
CAL    

DESCRIPTOR "Argyll Calibration options and model"
ORIGINATOR "Argyll dispcal"
CREATED "Thu Oct 22 19:07:02 201"

NUMBER_OF_FIELDS 3
BEGIN_DATA_FORMAT
R_P G_P B_P 
END_DATA_FORMAT

NUMBER_OF_SETS 32
BEGIN_DATA
-0.000758464 -0.000569533 -0.000557238 
1.000758 1.000570 1.000557 
0.0559623 0.124618 0.114537 
0.0959807 0.0874921 0.100266 
0.0981327 0.0956464 0.0950700 
0.0894477 0.0886975 0.0859599 
0.0807038 0.0851308 0.0786187 
0.0835985 0.0828397 0.0768710 
0.0807629 0.0853541 0.0731214 
0.0676192 0.0690429 0.0630587 
0.0618685 0.0621372 0.0570918 
0.0574097 0.0585762 0.0537074 
0.0489523 0.0473001 0.0471370 
0.0365267 0.0408507 0.0416866 
0.0297655 0.0319694 0.0349003 
0.0312272 0.0326021 0.0345214 
0.0282888 0.0290863 0.0329724 
0.0237419 0.0254761 0.0296092 
0.0181557 0.0231303 0.0240165 
0.0173258 0.0222613 0.0234207 
0.0163185 0.0218947 0.0228695 
0.0132514 0.0200630 0.0179096 
0.0100252 0.0196352 0.0160075 
0.0120582 0.0182377 0.0180697 
0.0121694 0.0176153 0.0172310 
0.0116115 0.0128799 0.0216043 
0.0102491 0.0160883 0.0163300 
0.00855651 0.0125564 0.0155435 
0.00745064 0.0108303 0.0172966 
0.00854444 0.0110793 0.0159625 
0.00387843 0.0122524 0.00691043 
0.00977806 0.00950795 0.0176370 
END_DATA
