ws2812b-9500.cal
CAL    

DESCRIPTOR "Argyll Device Calibration Curves"
ORIGINATOR "Argyll dispcal"
CREATED "Thu Oct 22 19:17:39 2015"
DEVICE_CLASS "DISPLAY"
COLOR_REP "RGB"
VIDEO_LUT_CALIBRATION_POSSIBLE "YES"
TV_OUTPUT_ENCODING "NO"
DEVICE_TYPE "e"
TARGET_WHITE_XYZ "1339.864771 1405.214945 2008.929738"
TARGET_GAMMA "L_STAR"
DEGREE_OF_BLACK_OUTPUT_OFFSET "1.000000"
BLACK_POINT_CORRECTION "0.450861"
BLACK_NEUTRAL_BLEND_RATE "4.000000"
QUALITY "low"

NUMBER_OF_FIELDS 4
BEGIN_DATA_FORMAT
RGB_I RGB_R RGB_G RGB_B 
END_DATA_FORMAT

NUMBER_OF_SETS 256
BEGIN_DATA
0.00000 0.00300317 0.00183720 0.00134595 
0.00392157 0.00427879 0.00302406 0.00194577 
0.00784314 0.00555506 0.00420817 0.00255132 
0.0117647 0.00683198 0.00538954 0.00316268 
0.0156863 0.00810954 0.00656817 0.00377993 
0.0196078 0.00938775 0.00774408 0.00440317 
0.0235294 0.0106666 0.00891727 0.00503247 
0.0274510 0.0119461 0.0100878 0.00566793 
0.0313725 0.0132263 0.0112555 0.00630964 
0.0352941 0.0145071 0.0124207 0.00695768 
0.0392157 0.0157886 0.0135831 0.00761217 
0.0431373 0.0170707 0.0147428 0.00827318 
0.0470588 0.0183534 0.0158999 0.00894082 
0.0509804 0.0196369 0.0170544 0.00961519 
0.0549020 0.0209209 0.0182062 0.0102964 
0.0588235 0.0222056 0.0193554 0.0109845 
0.0627451 0.0234910 0.0205019 0.0116797 
0.0666667 0.0247771 0.0216459 0.0123821 
0.0705882 0.0260637 0.0227872 0.0130917 
0.0745098 0.0273511 0.0239259 0.0138086 
0.0784314 0.0286391 0.0250621 0.0145331 
0.0823529 0.0299277 0.0261957 0.0152646 
0.0862745 0.0312171 0.0273267 0.0160018 
0.0901961 0.0325070 0.0284552 0.0167436 
0.0941176 0.0337977 0.0295810 0.0174902 
0.0980392 0.0350889 0.0307037 0.0182430 
0.101961 0.0363809 0.0318240 0.0190046 
0.105882 0.0376738 0.0329424 0.0197764 
0.109804 0.0389677 0.0340595 0.0205570 
0.113725 0.0402630 0.0351760 0.0213433 
0.117647 0.0415603 0.0362928 0.0221335 
0.121569 0.0428608 0.0374112 0.0229268 
0.125490 0.0441648 0.0385326 0.0237230 
0.129412 0.0454727 0.0396581 0.0245208 
0.133333 0.0467846 0.0407887 0.0253193 
0.137255 0.0481006 0.0419245 0.0261165 
0.141176 0.0494213 0.0430656 0.0269119 
0.145098 0.0507472 0.0442118 0.0277044 
0.149020 0.0520784 0.0453627 0.0284946 
0.152941 0.0534145 0.0465185 0.0292843 
0.156863 0.0547550 0.0476793 0.0300746 
0.160784 0.0560987 0.0488450 0.0308668 
0.164706 0.0574447 0.0500161 0.0316613 
0.168627 0.0587923 0.0511927 0.0324582 
0.172549 0.0601404 0.0523746 0.0332564 
0.176471 0.0614892 0.0535613 0.0340542 
0.180392 0.0628388 0.0547529 0.0348504 
0.184314 0.0641891 0.0559493 0.0356445 
0.188235 0.0655405 0.0571498 0.0364370 
0.192157 0.0668938 0.0583544 0.0372269 
0.196078 0.0682490 0.0595629 0.0380149 
0.200000 0.0696063 0.0607749 0.0388047 
0.203922 0.0709659 0.0619899 0.0395973 
0.207843 0.0723279 0.0632075 0.0403959 
0.211765 0.0736921 0.0644272 0.0412010 
0.215686 0.0750586 0.0656505 0.0420138 
0.219608 0.0764272 0.0668779 0.0428348 
0.223529 0.0777974 0.0681090 0.0436633 
0.227451 0.0791687 0.0693430 0.0444990 
0.231373 0.0805414 0.0705799 0.0453412 
0.235294 0.0819157 0.0718190 0.0461894 
0.239216 0.0832912 0.0730602 0.0470442 
0.243137 0.0846675 0.0743030 0.0479056 
0.247059 0.0860453 0.0755457 0.0487757 
0.250980 0.0874275 0.0767883 0.0496569 
0.254902 0.0888144 0.0780310 0.0505504 
0.258824 0.0902059 0.0792738 0.0514542 
0.262745 0.0916021 0.0805165 0.0523718 
0.266667 0.0930032 0.0817589 0.0533040 
0.270588 0.0944115 0.0830010 0.0542525 
0.274510 0.0958273 0.0842424 0.0552182 
0.278431 0.0972506 0.0854832 0.0562010 
0.282353 0.0986812 0.0867250 0.0572008 
0.286275 0.100119 0.0879685 0.0582179 
0.290196 0.101565 0.0892139 0.0592480 
0.294118 0.103021 0.0904617 0.0602903 
0.298039 0.104489 0.0917119 0.0613448 
0.301961 0.105970 0.0929649 0.0624091 
0.305882 0.107462 0.0942212 0.0634847 
0.309804 0.108970 0.0954809 0.0645724 
0.313725 0.110494 0.0967451 0.0656705 
0.317647 0.112034 0.0980139 0.0667767 
0.321569 0.113593 0.0992874 0.0678902 
0.325490 0.115175 0.100566 0.0690001 
0.329412 0.116779 0.101851 0.0701023 
0.333333 0.118408 0.103142 0.0711942 
0.337255 0.120062 0.104440 0.0722729 
0.341176 0.121741 0.105747 0.0733338 
0.345098 0.123448 0.107064 0.0743767 
0.349020 0.125184 0.108392 0.0754010 
0.352941 0.126950 0.109735 0.0764061 
0.356863 0.128747 0.111099 0.0773909 
0.360784 0.130574 0.112483 0.0783598 
0.364706 0.132432 0.113887 0.0793144 
0.368627 0.134322 0.115314 0.0802551 
0.372549 0.136245 0.116765 0.0811834 
0.376471 0.138200 0.118239 0.0821056 
0.380392 0.140189 0.119737 0.0830223 
0.384314 0.142218 0.121260 0.0839348 
0.388235 0.144290 0.122808 0.0848467 
0.392157 0.146408 0.124381 0.0857602 
0.396078 0.148573 0.125982 0.0866758 
0.400000 0.150786 0.127614 0.0875951 
0.403922 0.153046 0.129271 0.0885200 
0.407843 0.155351 0.130956 0.0894514 
0.411765 0.157699 0.132668 0.0903919 
0.415686 0.160087 0.134405 0.0913438 
0.419608 0.162511 0.136168 0.0923060 
0.423529 0.164969 0.137956 0.0932764 
0.427451 0.167469 0.139767 0.0942539 
0.431373 0.170005 0.141597 0.0952386 
0.435294 0.172569 0.143447 0.0962318 
0.439216 0.175159 0.145317 0.0972285 
0.443137 0.177777 0.147204 0.0982245 
0.447059 0.180424 0.149109 0.0992191 
0.450980 0.183099 0.151035 0.100212 
0.454902 0.185798 0.152983 0.101205 
0.458824 0.188515 0.154948 0.102202 
0.462745 0.191253 0.156930 0.103203 
0.466667 0.194014 0.158930 0.104208 
0.470588 0.196802 0.160949 0.105217 
0.474510 0.199619 0.162988 0.106228 
0.478431 0.202468 0.165046 0.107240 
0.482353 0.205352 0.167123 0.108253 
0.486275 0.208268 0.169222 0.109267 
0.490196 0.211216 0.171342 0.110284 
0.494118 0.214205 0.173483 0.111311 
0.498039 0.217237 0.175649 0.112349 
0.501961 0.220316 0.177840 0.113398 
0.505882 0.223442 0.180055 0.114460 
0.509804 0.226616 0.182298 0.115540 
0.513725 0.229839 0.184572 0.116642 
0.517647 0.233115 0.186875 0.117769 
0.521569 0.236447 0.189208 0.118923 
0.525490 0.239836 0.191578 0.120103 
0.529412 0.243284 0.193986 0.121313 
0.533333 0.246790 0.196433 0.122554 
0.537255 0.250350 0.198921 0.123832 
0.541176 0.253965 0.201445 0.125151 
0.545098 0.257633 0.204008 0.126508 
0.549020 0.261357 0.206613 0.127902 
0.552941 0.265137 0.209260 0.129330 
0.556863 0.268959 0.211951 0.130783 
0.560784 0.272827 0.214686 0.132264 
0.564706 0.276760 0.217466 0.133776 
0.568627 0.280755 0.220280 0.135306 
0.572549 0.284809 0.223125 0.136845 
0.576471 0.288908 0.226005 0.138392 
0.580392 0.293034 0.228921 0.139950 
0.584314 0.297187 0.231875 0.141516 
0.588235 0.301375 0.234873 0.143087 
0.592157 0.305620 0.237912 0.144673 
0.596078 0.309917 0.240996 0.146283 
0.600000 0.314255 0.244133 0.147916 
0.603922 0.318656 0.247322 0.149566 
0.607843 0.323136 0.250565 0.151237 
0.611765 0.327696 0.253864 0.152930 
0.615686 0.332341 0.257202 0.154652 
0.619608 0.337069 0.260577 0.156400 
0.623529 0.341863 0.263991 0.158171 
0.627451 0.346724 0.267448 0.159965 
0.631373 0.351657 0.270950 0.161781 
0.635294 0.356652 0.274493 0.163614 
0.639216 0.361711 0.278067 0.165455 
0.643137 0.366816 0.281659 0.167291 
0.647059 0.371919 0.285270 0.169124 
0.650980 0.377001 0.288904 0.170954 
0.654902 0.382061 0.292543 0.172777 
0.658824 0.387097 0.296176 0.174577 
0.662745 0.392098 0.299806 0.176341 
0.666667 0.397059 0.303432 0.178070 
0.670588 0.401973 0.307030 0.179775 
0.674510 0.406811 0.310591 0.181457 
0.678431 0.411585 0.314127 0.183116 
0.682353 0.416309 0.317651 0.184775 
0.686275 0.421026 0.321175 0.186441 
0.690196 0.425770 0.324711 0.188120 
0.694118 0.430573 0.328313 0.189825 
0.698039 0.435458 0.331982 0.191566 
0.701961 0.440441 0.335726 0.193361 
0.705882 0.445531 0.339543 0.195210 
0.709804 0.450724 0.343440 0.197118 
0.713725 0.456039 0.347420 0.199086 
0.717647 0.461480 0.351485 0.201124 
0.721569 0.467027 0.355626 0.203217 
0.725490 0.472680 0.359839 0.205368 
0.729412 0.478407 0.364110 0.207576 
0.733333 0.484205 0.368439 0.209842 
0.737255 0.490078 0.372828 0.212143 
0.741176 0.496032 0.377282 0.214457 
0.745098 0.502090 0.381783 0.216771 
0.749020 0.508194 0.386308 0.219092 
0.752941 0.514344 0.390857 0.221418 
0.756863 0.520536 0.395427 0.223744 
0.760784 0.526793 0.400032 0.226056 
0.764706 0.533145 0.404683 0.228344 
0.768627 0.539585 0.409378 0.230631 
0.772549 0.546093 0.414100 0.232928 
0.776471 0.552596 0.418828 0.235232 
0.780392 0.559144 0.423590 0.237545 
0.784314 0.565771 0.428399 0.239866 
0.788235 0.572456 0.433264 0.242232 
0.792157 0.579144 0.438149 0.244650 
0.796078 0.585875 0.443068 0.247099 
0.800000 0.592675 0.448045 0.249568 
0.803922 0.599544 0.453106 0.252053 
0.807843 0.606492 0.458241 0.254555 
0.811765 0.613475 0.463425 0.257101 
0.815686 0.620436 0.468637 0.259691 
0.819608 0.627380 0.473917 0.262299 
0.823529 0.634385 0.479289 0.264916 
0.827451 0.641506 0.484749 0.267547 
0.831373 0.648736 0.490265 0.270204 
0.835294 0.656083 0.495864 0.272884 
0.839216 0.663552 0.501576 0.275574 
0.843137 0.670979 0.507311 0.278259 
0.847059 0.678329 0.512951 0.280923 
0.850980 0.685607 0.518527 0.283591 
0.854902 0.692822 0.524071 0.286296 
0.858824 0.700030 0.529559 0.288999 
0.862745 0.707299 0.534984 0.291657 
0.866667 0.714693 0.540385 0.294263 
0.870588 0.722213 0.545868 0.296843 
0.874510 0.729761 0.551400 0.299411 
0.878431 0.737375 0.556932 0.301991 
0.882353 0.745065 0.562473 0.304610 
0.886275 0.752795 0.568043 0.307307 
0.890196 0.760560 0.573672 0.310071 
0.894118 0.768339 0.579355 0.312889 
0.898039 0.776159 0.585088 0.315757 
0.901961 0.784097 0.590930 0.318695 
0.905882 0.792099 0.596869 0.321696 
0.909804 0.800086 0.602890 0.324737 
0.913725 0.808046 0.608915 0.327779 
0.917647 0.816043 0.614957 0.330884 
0.921569 0.824123 0.621041 0.334077 
0.925490 0.832247 0.627171 0.337279 
0.929412 0.840401 0.633374 0.340491 
0.933333 0.848637 0.639650 0.343699 
0.937255 0.856881 0.646010 0.346933 
0.941176 0.865107 0.652406 0.350182 
0.945098 0.873325 0.658821 0.353423 
0.949020 0.881532 0.665246 0.356623 
0.952941 0.889725 0.671681 0.359813 
0.956863 0.897903 0.678110 0.362993 
0.960784 0.906087 0.684550 0.366129 
0.964706 0.914260 0.690997 0.369249 
0.968627 0.922464 0.697499 0.372390 
0.972549 0.930680 0.704061 0.375551 
0.976471 0.938911 0.710671 0.378734 
0.980392 0.947148 0.717327 0.381932 
0.984314 0.955391 0.724028 0.385144 
0.988235 0.963637 0.730772 0.388352 
0.992157 0.971889 0.737565 0.391553 
0.996078 0.980146 0.744407 0.394745 
1.000000 0.988409 0.751300 0.397929 
END_DATA
CAL    

DESCRIPTOR "Argyll Calibration options and model"
ORIGINATOR "Argyll dispcal"
CREATED "Thu Oct 22 19:17:39 201"

NUMBER_OF_FIELDS 3
BEGIN_DATA_FORMAT
R_P G_P B_P 
END_DATA_FORMAT

NUMBER_OF_SETS 32
BEGIN_DATA
-0.000549270 -0.000395706 -0.000442892 
1.000549 1.000396 1.000443 
-0.00750353 0.132553 0.125388 
0.174733 0.0836266 0.103040 
0.110198 0.126075 0.0907481 
0.0821700 0.0626532 0.0757768 
0.0645226 0.0939592 0.0677482 
0.0578418 0.0586287 0.0645377 
0.0534612 0.0651887 0.0615652 
0.0452246 0.0633100 0.0539067 
0.0397923 0.0376135 0.0492668 
0.0394796 0.0610636 0.0472881 
0.0320653 0.0248391 0.0424508 
0.0285612 0.0497426 0.0375353 
0.0262291 0.0233956 0.0326384 
0.0243052 0.0329347 0.0320673 
0.0227477 0.0302671 0.0295841 
0.0206920 0.0164793 0.0269997 
0.0179322 0.0343785 0.0227750 
0.0166020 0.00932406 0.0217228 
0.0163691 0.0320821 0.0205239 
0.0121441 0.0100041 0.0175913 
0.0122000 0.0225339 0.0148724 
0.0111340 0.0178924 0.0163755 
0.0123812 0.0112166 0.0158368 
0.0124367 0.0243726 0.0212666 
0.0126380 0.00517483 0.0152969 
0.00898504 0.0227872 0.0149304 
0.0147884 0.00640061 0.0175239 
0.00341494 0.0169033 0.0137726 
0.0144301 0.0107592 0.00982778 
0.00341400 0.00958603 0.0151688 
END_DATA
